projects/ccf-eui/src/assets/icons/organ-icons/organ-icon-larynx.svg

<svg width="64" height="64" viewBox="0 0 64 64" fill="currentColor" xmlns="http://www.w3.org/2000/svg">
<g clip-path="url(#clip0_1795_479)">
<path d="M36.3514 48.4502C33.5455 48.4502 31.1267 47.3438 29.7915 45.7327C29.1335 46.5286 28.7272 47.4602 28.7272 48.4502C28.7272 51.4588 32.1329 53.9044 36.332 53.9044C40.5312 53.9044 43.9369 51.4588 43.9369 48.4502C43.9369 47.4602 43.5305 46.5286 42.8726 45.7327C41.5568 47.3632 39.1379 48.4502 36.3127 48.4502H36.3514Z" />
<path d="M41.6149 55.0691V55.1079C41.6149 55.5543 39.3315 56.5442 35.558 56.5442C32.4813 56.5442 30.6429 55.8066 30.6429 55.0108C30.5849 54.4091 30.4881 53.4968 30.4301 52.4681C29.7915 51.9634 29.269 51.4005 28.9014 50.76C28.9594 52.8757 29.1529 54.7391 29.1916 55.1079C29.1916 56.913 31.5718 58 35.558 58C38.1511 58 43.0468 57.3983 43.0662 55.1273C43.1242 53.788 43.1629 52.6234 43.1823 51.5946C42.7759 52.0799 42.2728 52.5069 41.6923 52.8757C41.6923 53.6133 41.6536 54.3509 41.6149 55.0885V55.0691Z" />
<path d="M32.9264 20.6159C33.9133 21.1594 35.4613 21.0235 35.4613 21.0235C35.4613 21.0235 37.0094 21.1594 37.9963 20.6159C39.4863 19.8007 41.8664 16.5009 42.1954 14.0164C42.447 12.1725 41.5375 9.64912 40.0668 7.99925C38.6155 6.34938 37.1255 6.01941 35.7322 6.01941C34.339 6.01941 32.191 6.42702 30.8171 7.99925C29.3658 9.64912 28.4563 12.1919 28.6885 14.0164C29.0175 16.5009 31.3977 19.8007 32.8877 20.6159H32.9264Z" />
<path d="M50.7872 20.7906C50.6324 19.8395 50.4582 18.6555 50.5937 18.0537C50.9033 16.7339 51.2903 13.7059 50.4969 12.7353C50.0712 12.2113 49.4713 11.9783 48.9488 12.1725C48.5618 12.3083 48.2909 12.6383 48.2909 13.0265C48.2909 13.1818 48.2909 13.4729 48.3103 13.8223C48.349 14.424 48.3877 15.3169 48.3103 15.6857C48.1168 16.3845 47.9426 17.4909 47.8071 18.3837C47.7878 18.5584 47.7491 18.7137 47.7297 18.869C46.3171 17.5879 44.4014 16.6562 42.06 17.3356C41.0537 19.2184 39.583 20.9653 38.4414 21.5864C37.319 22.2075 35.6742 22.1105 35.4613 22.0911C35.4613 22.0911 35.2872 22.0911 35.0163 22.0911C34.4164 22.0911 33.3134 22.0134 32.5007 21.567C31.359 20.9459 29.8883 19.2184 28.8821 17.3162C26.5987 16.6368 24.7023 17.5297 23.2897 18.7719C23.251 18.539 23.2123 18.2673 23.1542 17.9761C23.0188 17.0832 22.8446 15.9769 22.6511 15.2781C22.593 15.084 22.6511 14.6375 22.7091 14.2688C22.7865 13.5894 22.8833 12.8712 22.6124 12.4054C22.3415 11.9589 22.0125 11.726 21.6448 11.6872C21.2191 11.6484 20.8515 11.8813 20.4838 12.3471C19.7098 13.2982 20.0194 16.1127 20.387 17.6655C20.5612 18.4225 20.5031 19.4901 20.4451 20.5965C20.4064 21.1982 20.387 21.7999 20.387 22.3822V22.8675H20.4064C20.4064 22.8675 20.4064 22.9257 20.4064 22.9451C20.1355 25.4879 22.8059 33.5431 23.9089 35.1542C24.9151 36.6099 26.0762 35.9306 27.1018 35.3483C27.3727 35.193 27.6823 35.0183 27.9919 34.863C28.05 34.766 28.0693 34.6883 28.1274 34.5719C29.1143 32.3979 32.4426 34.3583 32.8296 34.533L33.7198 34.9601C33.7198 34.9601 33.6036 35.0571 33.5456 35.1153L33.4101 35.1736C33.4101 35.1736 33.4295 35.1736 33.4488 35.193C32.9264 35.6976 32.133 36.6682 31.3396 38.4927C30.9913 37.7163 30.9913 36.9787 31.03 36.5517C31.1074 35.5812 32.6168 34.9601 32.6168 34.9601C32.6168 34.9601 29.3271 33.3684 28.5531 34.7854C27.7791 36.2023 28.108 36.6293 27.4114 36.9205C26.7148 37.2116 25.2828 37.7163 25.2828 38.5121C25.2828 39.3079 26.0955 43.3064 28.108 44.1023C28.5724 44.2964 29.0562 44.2576 29.5787 44.277C29.5787 44.3158 29.5787 44.3546 29.5593 44.3934C29.3852 44.7622 29.2497 45.2281 29.153 45.7521C29.2497 45.6163 29.3271 45.4804 29.4239 45.3639L29.7915 44.9175L30.1592 45.3639C30.2947 45.5192 30.4688 45.6357 30.6043 45.7715C30.6817 45.4416 30.7591 45.1698 30.8752 44.9563C30.9139 44.8981 30.9332 44.8399 30.9332 44.7816C30.9332 44.7622 30.9332 44.7428 30.9332 44.7234C31.8427 45.3251 31.804 46.0627 35.442 46.0627C39.2541 46.0627 39.0025 45.2669 40.0668 44.6458C40.3571 44.4711 40.628 44.3934 40.8989 44.3352C41.0537 44.6458 41.2085 44.9563 41.402 45.2863C41.4794 45.4222 41.5375 45.791 41.5762 46.2374C41.9051 45.9657 42.2341 45.7133 42.4857 45.3833L42.8146 44.9757C42.7179 44.6458 42.6211 44.4711 42.5437 44.374C42.505 44.2964 42.4857 44.2381 42.447 44.1605C42.5631 44.1411 42.6792 44.1217 42.8146 44.0829C44.8078 43.287 45.6399 39.2885 45.6399 38.4927C45.6399 37.6969 44.2272 37.2116 43.5113 36.9011C42.7953 36.5905 43.1242 36.1829 42.3696 34.766C41.6149 33.349 38.3059 34.9406 38.3059 34.9406C38.3059 34.9406 39.7959 35.5424 39.8927 36.5323C39.9314 36.9011 39.9507 37.4834 39.7379 38.1239C39.1186 36.7846 38.4414 35.6782 37.4351 34.8242L38.093 34.4942C38.4801 34.3195 41.6923 32.5144 42.6405 34.3001C42.6985 34.3972 42.8727 34.7077 42.9114 34.8048C43.2404 34.9601 43.5693 35.1347 43.8596 35.3094C44.8852 35.9112 46.0269 36.5711 47.0331 35.1153C47.8845 33.8925 49.6261 28.9235 50.284 25.5073C50.5163 25.0608 50.7098 24.3038 50.9226 22.9451L50.9613 22.7704C51.0387 22.3046 50.9226 21.567 50.7872 20.7324V20.7906ZM38.809 39.6573C38.1511 40.2979 37.1255 40.8608 35.4807 41.2101H35.442C33.9713 40.8996 33.0231 40.4143 32.3652 39.8514C33.2553 37.5804 34.1261 36.5905 34.5518 36.2023C34.7647 36.4352 34.9969 36.5517 35.1904 36.5711C35.2485 36.5711 35.2872 36.5711 35.3452 36.5711C35.7322 36.5711 36.1193 36.3576 36.4869 35.9694C37.4932 36.8234 38.1317 38.0463 38.809 39.6573Z" />
</g>
<defs>
<clipPath id="clip0_1795_479">
<rect width="31" height="52"  transform="translate(20 6)"/>
</clipPath>
</defs>
</svg>

<svg xmlns="http://www.w3.org/2000/svg" width="64" height="64" fill="currentColor" viewBox="0 0 64 64"><g clip-path="url(#a)"><path d="M36.351 48.45c-2.806 0-5.224-1.106-6.56-2.717-.657.796-1.064 1.727-1.064 2.717 0 3.009 3.406 5.454 7.605 5.454 4.2 0 7.605-2.445 7.605-5.454 0-.99-.406-1.921-1.064-2.717-1.316 1.63-3.735 2.717-6.56 2.717z"/><path d="M41.615 55.07v.038c0 .446-2.284 1.436-6.057 1.436-3.077 0-4.915-.737-4.915-1.533-.058-.602-.155-1.514-.213-2.543-.639-.505-1.161-1.068-1.529-1.708.058 2.116.252 3.98.29 4.348 0 1.805 2.38 2.892 6.367 2.892 2.593 0 7.489-.602 7.508-2.873.058-1.339.097-2.504.116-3.532-.406.485-.91.912-1.49 1.28 0 .738-.038 1.476-.077 2.214zM32.926 20.616c.987.543 2.535.407 2.535.407s1.548.136 2.535-.407c1.49-.815 3.87-4.115 4.2-6.6.251-1.844-.658-4.367-2.13-6.017-1.45-1.65-2.94-1.98-4.334-1.98s-3.541.408-4.915 1.98c-1.451 1.65-2.36 4.193-2.128 6.017.328 2.485 2.709 5.785 4.199 6.6z"/><path d="M50.787 20.79c-.155-.95-.329-2.134-.193-2.736.31-1.32.696-4.348-.097-5.319-.426-.524-1.026-.757-1.548-.562-.387.135-.658.465-.658.854 0 .155 0 .446.02.795.038.602.077 1.495 0 1.864-.194.698-.368 1.805-.504 2.698-.02.174-.058.33-.077.485-1.413-1.281-3.329-2.213-5.67-1.533-1.006 1.882-2.477 3.63-3.619 4.25-1.122.622-2.767.524-2.98.505h-.445c-.6 0-1.703-.078-2.515-.524-1.142-.621-2.613-2.349-3.619-4.25-2.283-.68-4.18.213-5.592 1.455-.039-.233-.078-.505-.136-.796-.135-.893-.31-2-.503-2.698-.058-.194 0-.64.058-1.01.078-.679.174-1.397-.097-1.863-.27-.446-.6-.679-.967-.718-.426-.039-.793.194-1.161.66-.774.951-.465 3.766-.097 5.319.174.756.116 1.824.058 2.93a28 28 0 0 0-.058 1.786v.485h.02v.078c-.271 2.543 2.399 10.598 3.502 12.21 1.006 1.455 2.167.776 3.193.193.27-.155.58-.33.89-.485.058-.097.077-.175.135-.291.987-2.174 4.316-.214 4.703-.039l.89.427s-.116.097-.174.155l-.136.059s.02 0 .039.019c-.523.505-1.316 1.475-2.11 3.3a3.9 3.9 0 0 1-.309-1.941c.077-.97 1.587-1.592 1.587-1.592s-3.29-1.592-4.064-.175-.445 1.844-1.142 2.136c-.696.29-2.128.795-2.128 1.591s.813 4.794 2.825 5.59c.464.194.948.156 1.47.175 0 .039 0 .078-.019.116-.174.37-.31.835-.406 1.36.097-.137.174-.273.27-.39l.369-.446.367.447c.136.155.31.272.445.408.078-.33.155-.602.271-.816a.3.3 0 0 0 .058-.174v-.059c.91.602.871 1.34 4.509 1.34 3.812 0 3.56-.796 4.625-1.417.29-.175.561-.253.832-.31.155.31.31.62.503.95.077.136.136.505.174.951.33-.271.658-.524.91-.854l.329-.407c-.097-.33-.194-.505-.271-.602-.039-.078-.058-.136-.097-.214.116-.019.232-.038.368-.077 1.993-.796 2.825-4.794 2.825-5.59s-1.413-1.281-2.129-1.592c-.716-.31-.387-.718-1.141-2.135-.755-1.417-4.064.175-4.064.175s1.49.601 1.587 1.591c.038.37.058.951-.155 1.592-.62-1.34-1.297-2.446-2.303-3.3l.658-.33c.387-.175 3.6-1.98 4.547-.194.059.097.233.408.271.505.33.155.658.33.949.504 1.025.602 2.167 1.262 3.173-.194.852-1.223 2.593-6.192 3.251-9.608.232-.446.426-1.203.639-2.562l.038-.175c.078-.465-.038-1.203-.174-2.038zM38.81 39.658c-.658.64-1.683 1.204-3.328 1.553h-.039c-1.47-.31-2.419-.796-3.077-1.359.89-2.27 1.761-3.26 2.187-3.649.213.233.445.35.638.37h.155c.387 0 .774-.214 1.142-.603 1.006.854 1.645 2.077 2.322 3.688"/></g><defs><clipPath id="a"><path d="M20 6h31v52H20z"/></clipPath></defs></svg>
